22x22/apps/galculator.svg

<svg xmlns="http://www.w3.org/2000/svg" width="22" height="22" version="1.1">
 <rect style="opacity:0.2" width="19" height="19" x="-20.5" y="-21" rx="1.425" ry="1.425" transform="matrix(0,-1,-1,0,0,0)"/>
 <rect style="fill:#4b7abb" width="19" height="19" x="-20" y="-21" rx="1.425" ry="1.425" transform="matrix(0,-1,-1,0,0,0)"/>
 <path style="opacity:0.2" d="m 5,2.4999969 c -0.554,0 -1,0.446 -1,1 v 3 c 0,0.554 0.446,1 1,1 h 13 c 0.554,0 1,-0.446 1,-1 v -3 c 0,-0.554 -0.446,-1 -1,-1 z m -0.25,6 c -0.4155,0 -0.75,0.3345 -0.75,0.7500001 v 1.5 c 0,0.4155 0.3345,0.75 0.75,0.75 h 1.5 c 0.4155,0 0.75,-0.3345 0.75,-0.75 v -1.5 C 7,8.8344969 6.6655,8.4999969 6.25,8.4999969 Z m 4,0 c -0.4155,0 -0.75,0.3345 -0.75,0.7500001 v 1.5 c 0,0.4155 0.3345,0.75 0.75,0.75 h 1.5 c 0.4155,0 0.75,-0.3345 0.75,-0.75 v -1.5 C 11,8.8344969 10.6655,8.4999969 10.25,8.4999969 Z m 4,0 c -0.4155,0 -0.75,0.3345 -0.75,0.7500001 v 1.5 c 0,0.4155 0.3345,0.75 0.75,0.75 h 1.5 c 0.4155,0 0.75,-0.3345 0.75,-0.75 v -1.5 C 15,8.8344969 14.6655,8.4999969 14.25,8.4999969 Z m 4,0 c -0.4155,0 -0.75,0.3345 -0.75,0.7500001 v 1.5 c 0,0.4155 0.3345,0.75 0.75,0.75 h 1.5 c 0.4155,0 0.75,-0.3345 0.75,-0.75 v -1.5 C 19,8.8344969 18.6655,8.4999969 18.25,8.4999969 Z m -12,4.0000001 c -0.4155,0 -0.75,0.3345 -0.75,0.75 v 1.5 c 0,0.4155 0.3345,0.75 0.75,0.75 h 1.5 c 0.4155,0 0.75,-0.3345 0.75,-0.75 v -1.5 c 0,-0.4155 -0.3345,-0.75 -0.75,-0.75 z m 4,0 c -0.4155,0 -0.75,0.3345 -0.75,0.75 v 1.5 c 0,0.4155 0.3345,0.75 0.75,0.75 h 1.5 c 0.4155,0 0.75,-0.3345 0.75,-0.75 v -1.5 c 0,-0.4155 -0.3345,-0.75 -0.75,-0.75 z m 4,0 c -0.4155,0 -0.75,0.3345 -0.75,0.75 v 1.5 c 0,0.4155 0.3345,0.75 0.75,0.75 h 1.5 c 0.4155,0 0.75,-0.3345 0.75,-0.75 v -1.5 c 0,-0.4155 -0.3345,-0.75 -0.75,-0.75 z m 4,0 c -0.4155,0 -0.75,0.3345 -0.75,0.75 v 5.5 c 0,0.4155 0.3345,0.75 0.75,0.75 h 1.5 c 0.4155,0 0.75,-0.3345 0.75,-0.75 v -5.5 c 0,-0.4155 -0.3345,-0.75 -0.75,-0.75 z m -12,4 c -0.4155,0 -0.75,0.3345 -0.75,0.75 v 1.5 c 0,0.4155 0.3345,0.75 0.75,0.75 h 1.5 c 0.4155,0 0.75,-0.3345 0.75,-0.75 v -1.5 c 0,-0.4155 -0.3345,-0.75 -0.75,-0.75 z m 4,0 c -0.4155,0 -0.75,0.3345 -0.75,0.75 v 1.5 c 0,0.4155 0.3345,0.75 0.75,0.75 h 1.5 c 0.4155,0 0.75,-0.3345 0.75,-0.75 v -1.5 c 0,-0.4155 -0.3345,-0.75 -0.75,-0.75 z m 4,0 c -0.4155,0 -0.75,0.3345 -0.75,0.75 v 1.5 c 0,0.4155 0.3345,0.75 0.75,0.75 h 1.5 c 0.4155,0 0.75,-0.3345 0.75,-0.75 v -1.5 c 0,-0.4155 -0.3345,-0.75 -0.75,-0.75 z"/>
 <path style="fill:#f4f4f7" d="M 5,2 C 4.446,2 4,2.446 4,3 v 3 c 0,0.554 0.446,1 1,1 h 13 c 0.554,0 1,-0.446 1,-1 V 3 C 19,2.446 18.554,2 18,2 Z M 4.75,8 C 4.3345,8 4,8.3345 4,8.75 v 1.5 C 4,10.6655 4.3345,11 4.75,11 h 1.5 C 6.6655,11 7,10.6655 7,10.25 V 8.75 C 7,8.3345 6.6655,8 6.25,8 Z m 4,0 C 8.3345,8 8,8.3345 8,8.75 v 1.5 C 8,10.6655 8.3345,11 8.75,11 h 1.5 C 10.6655,11 11,10.6655 11,10.25 V 8.75 C 11,8.3345 10.6655,8 10.25,8 Z m 4,0 C 12.3345,8 12,8.3345 12,8.75 v 1.5 c 0,0.4155 0.3345,0.75 0.75,0.75 h 1.5 C 14.6655,11 15,10.6655 15,10.25 V 8.75 C 15,8.3345 14.6655,8 14.25,8 Z m 4,0 C 16.3345,8 16,8.3345 16,8.75 v 1.5 c 0,0.4155 0.3345,0.75 0.75,0.75 h 1.5 C 18.6655,11 19,10.6655 19,10.25 V 8.75 C 19,8.3345 18.6655,8 18.25,8 Z m -12,4 C 4.3345,12 4,12.3345 4,12.75 v 1.5 C 4,14.6655 4.3345,15 4.75,15 h 1.5 C 6.6655,15 7,14.6655 7,14.25 v -1.5 C 7,12.3345 6.6655,12 6.25,12 Z m 4,0 C 8.3345,12 8,12.3345 8,12.75 v 1.5 C 8,14.6655 8.3345,15 8.75,15 h 1.5 C 10.6655,15 11,14.6655 11,14.25 v -1.5 C 11,12.3345 10.6655,12 10.25,12 Z m 4,0 C 12.3345,12 12,12.3345 12,12.75 v 1.5 c 0,0.4155 0.3345,0.75 0.75,0.75 h 1.5 C 14.6655,15 15,14.6655 15,14.25 v -1.5 C 15,12.3345 14.6655,12 14.25,12 Z m 4,0 C 16.3345,12 16,12.3345 16,12.75 v 5.5 c 0,0.4155 0.3345,0.75 0.75,0.75 h 1.5 C 18.6655,19 19,18.6655 19,18.25 v -5.5 C 19,12.3345 18.6655,12 18.25,12 Z m -12,4 C 4.3345,16 4,16.3345 4,16.75 v 1.5 C 4,18.6655 4.3345,19 4.75,19 h 1.5 C 6.6655,19 7,18.6655 7,18.25 v -1.5 C 7,16.3345 6.6655,16 6.25,16 Z m 4,0 C 8.3345,16 8,16.3345 8,16.75 v 1.5 C 8,18.6655 8.3345,19 8.75,19 h 1.5 C 10.6655,19 11,18.6655 11,18.25 v -1.5 C 11,16.3345 10.6655,16 10.25,16 Z m 4,0 C 12.3345,16 12,16.3345 12,16.75 v 1.5 c 0,0.4155 0.3345,0.75 0.75,0.75 h 1.5 C 14.6655,19 15,18.6655 15,18.25 v -1.5 C 15,16.3345 14.6655,16 14.25,16 Z"/>
 <path style="opacity:0.1;fill:#f4f4f7" d="M 3.4257812,1 C 2.6363313,1 2,1.6363313 2,2.4257812 v 0.5 C 2,2.1363313 2.6363313,1.5 3.4257812,1.5 H 19.574219 C 20.363669,1.5 21,2.1363313 21,2.9257812 v -0.5 C 21,1.6363313 20.363669,1 19.574219,1 Z"/>
</svg>

<svg xmlns="http://www.w3.org/2000/svg" width="22" height="22"><rect style="opacity:.2" width="19" height="19" x="-20.5" y="-21" rx="1.425" ry="1.425" transform="matrix(0 -1 -1 0 0 0)"/><rect style="fill:#4b7abb" width="19" height="19" x="-20" y="-21" rx="1.425" ry="1.425" transform="matrix(0 -1 -1 0 0 0)"/><path style="opacity:.2" d="M5 2.5c-.554 0-1 .446-1 1v3c0 .554.446 1 1 1h13c.554 0 1-.446 1-1v-3c0-.554-.446-1-1-1zm-.25 6a.748.748 0 0 0-.75.75v1.5c0 .415.335.75.75.75h1.5c.415 0 .75-.335.75-.75v-1.5a.748.748 0 0 0-.75-.75zm4 0a.748.748 0 0 0-.75.75v1.5c0 .415.335.75.75.75h1.5c.415 0 .75-.335.75-.75v-1.5a.748.748 0 0 0-.75-.75zm4 0a.748.748 0 0 0-.75.75v1.5c0 .415.335.75.75.75h1.5c.415 0 .75-.335.75-.75v-1.5a.748.748 0 0 0-.75-.75zm4 0a.748.748 0 0 0-.75.75v1.5c0 .415.335.75.75.75h1.5c.415 0 .75-.335.75-.75v-1.5a.748.748 0 0 0-.75-.75zm-12 4a.748.748 0 0 0-.75.75v1.5c0 .415.335.75.75.75h1.5c.415 0 .75-.335.75-.75v-1.5a.748.748 0 0 0-.75-.75zm4 0a.748.748 0 0 0-.75.75v1.5c0 .415.335.75.75.75h1.5c.415 0 .75-.335.75-.75v-1.5a.748.748 0 0 0-.75-.75zm4 0a.748.748 0 0 0-.75.75v1.5c0 .415.335.75.75.75h1.5c.415 0 .75-.335.75-.75v-1.5a.748.748 0 0 0-.75-.75zm4 0a.748.748 0 0 0-.75.75v5.5c0 .415.335.75.75.75h1.5c.415 0 .75-.335.75-.75v-5.5a.748.748 0 0 0-.75-.75zm-12 4a.748.748 0 0 0-.75.75v1.5c0 .415.335.75.75.75h1.5c.415 0 .75-.335.75-.75v-1.5a.748.748 0 0 0-.75-.75zm4 0a.748.748 0 0 0-.75.75v1.5c0 .415.335.75.75.75h1.5c.415 0 .75-.335.75-.75v-1.5a.748.748 0 0 0-.75-.75zm4 0a.748.748 0 0 0-.75.75v1.5c0 .415.335.75.75.75h1.5c.415 0 .75-.335.75-.75v-1.5a.748.748 0 0 0-.75-.75z"/><path style="fill:#f4f4f7" d="M5 2c-.554 0-1 .446-1 1v3c0 .554.446 1 1 1h13c.554 0 1-.446 1-1V3c0-.554-.446-1-1-1zm-.25 6a.748.748 0 0 0-.75.75v1.5c0 .415.335.75.75.75h1.5c.415 0 .75-.335.75-.75v-1.5A.748.748 0 0 0 6.25 8zm4 0a.748.748 0 0 0-.75.75v1.5c0 .415.335.75.75.75h1.5c.415 0 .75-.335.75-.75v-1.5a.748.748 0 0 0-.75-.75zm4 0a.748.748 0 0 0-.75.75v1.5c0 .415.335.75.75.75h1.5c.415 0 .75-.335.75-.75v-1.5a.748.748 0 0 0-.75-.75zm4 0a.748.748 0 0 0-.75.75v1.5c0 .415.335.75.75.75h1.5c.416 0 .75-.335.75-.75v-1.5a.748.748 0 0 0-.75-.75zm-12 4a.748.748 0 0 0-.75.75v1.5c0 .415.335.75.75.75h1.5c.415 0 .75-.335.75-.75v-1.5a.748.748 0 0 0-.75-.75zm4 0a.748.748 0 0 0-.75.75v1.5c0 .415.335.75.75.75h1.5c.415 0 .75-.335.75-.75v-1.5a.748.748 0 0 0-.75-.75zm4 0a.748.748 0 0 0-.75.75v1.5c0 .415.335.75.75.75h1.5c.415 0 .75-.335.75-.75v-1.5a.748.748 0 0 0-.75-.75zm4 0a.748.748 0 0 0-.75.75v5.5c0 .415.335.75.75.75h1.5c.416 0 .75-.334.75-.75v-5.5a.748.748 0 0 0-.75-.75zm-12 4a.748.748 0 0 0-.75.75v1.5c0 .416.335.75.75.75h1.5c.415 0 .75-.334.75-.75v-1.5a.748.748 0 0 0-.75-.75zm4 0a.748.748 0 0 0-.75.75v1.5c0 .416.335.75.75.75h1.5c.415 0 .75-.334.75-.75v-1.5a.748.748 0 0 0-.75-.75zm4 0a.748.748 0 0 0-.75.75v1.5c0 .415.335.75.75.75h1.5c.415 0 .75-.334.75-.75v-1.5a.748.748 0 0 0-.75-.75z"/><path style="opacity:.1;fill:#f4f4f7" d="M3.426 1C2.636 1 2 1.636 2 2.426v.5c0-.79.636-1.426 1.426-1.426h16.148c.79 0 1.426.636 1.426 1.426v-.5C21 1.636 20.364 1 19.574 1z"/></svg>
